assets/images/techs/tailwind.svg

<?xml version="1.0" encoding="UTF-8"?>
<svg width="50px" height="30px" viewBox="0 0 50 30" version="1.1" xmlns="http://www.w3.org/2000/svg" xmlns:xlink="http://www.w3.org/1999/xlink">
    <title>tailwind</title>
    <g id="Page-1" stroke="none" stroke-width="1" fill="none" fill-rule="evenodd">
        <g id="tailwind" fill="#133A94" fill-rule="nonzero">
            <path d="M25.0021,0 C18.3354,0 14.1687,3.33333 12.5021,10 C15.0021,6.66667 17.9187,5.41667 21.2521,6.25 C23.1542,6.725 24.5125,8.10417 26.0187,9.63333 C28.4708,12.1208 31.3062,15 37.5021,15 C44.1687,15 48.3354,11.6667 50.0021,5 C47.5021,8.33333 44.5854,9.58333 41.2521,8.75 C39.35,8.275 37.9917,6.89583 36.4854,5.36667 C34.0354,2.87917 31.2,0 25.0021,0 Z M12.5021,15 C5.83541,15 1.66874,18.3333 0.0020752,25 C2.5020752,21.6667 5.41874,20.4167 8.75208,21.25 C10.6542,21.725 12.0125,23.1042 13.5187,24.6333 C15.9708,27.1208 18.8062,30 25.0021,30 C31.6687,30 35.8354,26.6667 37.5021,20 C35.0021,23.3333 32.0854,24.5833 28.7521,23.75 C26.85,23.275 25.4917,21.8958 23.9854,20.3667 C21.5354,17.8792 18.7,15 12.5021,15 Z" id="Shape"></path>
        </g>
    </g>
</svg>

<svg width="50" height="30" xmlns="http://www.w3.org/2000/svg"><path d="M25.002 0c-6.667 0-10.833 3.333-12.5 10 2.5-3.333 5.417-4.583 8.75-3.75 1.902.475 3.26 1.854 4.767 3.383C28.47 12.121 31.306 15 37.502 15c6.667 0 10.833-3.333 12.5-10-2.5 3.333-5.417 4.583-8.75 3.75-1.902-.475-3.26-1.854-4.767-3.383C34.035 2.879 31.2 0 25.002 0zm-12.5 15C5.835 15 1.67 18.333.002 25c2.5-3.333 5.417-4.583 8.75-3.75 1.902.475 3.26 1.854 4.767 3.383C15.97 27.121 18.806 30 25.002 30c6.667 0 10.833-3.333 12.5-10-2.5 3.333-5.417 4.583-8.75 3.75-1.902-.475-3.26-1.854-4.767-3.383C21.535 17.879 18.7 15 12.502 15z" fill="#133A94" fill-rule="nonzero"/></svg>
